X:1
T:Strollin'
T:Tom Brier
T:Strollin'
C:Tom Brier
%%score { ( 1 3 ) | ( 2 4 ) }
L:1/8
Q:1/2=65
M:4/4
K:C
V:1 treble nm="Piano" snm="Pno."
V:3 treble 
V:2 treble 
V:4 treble 
V:1
"^Swing""^Strollin',"!mf!!8va(! z c'' (3a'c''a' g'e' (3c'd'e' | %1
 [^fa] [fe']2 [=f^d']- [fd'] [fe']2 [egc']- | [egc']!8va)!c'ag ecde | %3
 [^FA] [Fe]2 [=Fd]- [Fd] [FBdg]3 |:!mf! (3GAG (3EF^F z [ce]3 | (3ABA (3FG^G z [df]3 | %6
 (3ede ge d e2 B | dcAG- G^GAB | dcBd c A2 c- | c_BAB A E3 | FAde- edcA | %11
 cdcB- [FGB] [FBdg]2 (3E/F/^F/ | (3GAG (3EF^F z [ce]3 | (3ABA (3FG^G z [df]3 | (3ede ge d e2 B | %15
 dcAG- G^GAB | d c2 e d c2 e | dced- d c2 _e | dc_ed- dB=Gc- |1 [EGc]2 (3GAG (3_GcG (3FDF :|2 %20
 [EGc]2{=G^G=A^AB} c2{=c^c=d^d} e2{e=f^f} g[G^g] |: %21
 [A^fa][cfc'][Aa][^A^a] [B=fb] [egbe']2 [=Ace=a]- | [Acea][cc'][Aa][Acea]- [Acea]G-[Gceg][^G^g] | %23
 [A^fa][cfc'][Aa][^A^a] [B=fb] [egbe']2 [=A^ce=a]- | [Acea]e[^cg][Acea]- [Acea]e[cg]A- | %25
 (3fgf (3dfa [e_ae'] [dad']3 | (3gag (3egc' [dd'] [ceac']2 [Be^gb]- | %27
 [Begb] (3b/^g/e/ Bb ab (3^c=d^d | ef[^F^f][=GBd=fg]- [GBdfg][F^f][Gg][^G^g] | %29
 [A^fa][cfc'][Aa][^A^a] [B=fb] [egbe']2 [=Ace=a]- | [Acea][cc'][Aa][Acea]- [Acea]G-[Gceg][^G^g] | %31
 [A^fa][cfc'][Aa][^A^a] [B=fb] [egbe']2 [=Ace=a]- | [Acea][cc'][Aa][A_Bea]- [ABea]e[GBeg]c | %33
 (3fgf (3ac'd' [e_ae'] [dad']3 | [e^gbe'] [dgbd']2 [ceac']- [ceac'] [Ac_ea]2 [_A_a] | %35
 [Gceg][^F^f][Gg][fac'e']- [fac'e']c'[d=fd'][cegc']- |1 %36
 [cegc']2{=G^G=A^AB} c2{=c^c=d^d} e2{e=f^f} g[G^g] :|2 [cegc']a (3geg (3fdf G (3E/F/^F/ || %38
 (3GAG (3EF^F z [ce]3 | (3ABA (3FG^G z [df]3 | (3ede ge d e2 B | dcAG- G^GAB | dcBd c A2 c- | %43
 c_BAB A E3 | FAde- edcA | cdcB- [FGB] [FBdg]2 (3E/F/^F/ | (3GAG (3EF^F z [ce]3 | %47
 (3ABA (3FG^G z [df]3 | (3ede ge d e2 B | dcAG- G^GAB | d c2 e d c2 e | dced- d c2 _e | %52
 dc_ed- dB =G2 | [EGc]4 [cegc']4 |:[K:F]!mp! z2 (3cdc (3BfB (3FG^G | Acdf d c2 A | Bgfd e [ea]2 g | %57
 fdfg- g c2 ^c | d a2 ^c d b2 a | [Bdg] [Bb]2 [Bd]- defg | [da] [=Bg]2 d [_A_e] [F_d]2 [EG_Bc]- | %61
 [EGBc]g (3ege (3ded c2 |!mp! z2 (3cdc (3BfB (3FG^G | Acdf d c2 A |!mf! Bgfd e a2 e | %65
 gfag- g f2 a | g f2 d g f2 ^c | dcAe- e d2 ^c | d a2 c'- c' ^g2 a |1 f2 (3cdc (3AB=B c2 :|2 %70
 [Acf]4 [FAcf]4 |:!mp! z a (3gag ecde | gfef- fdef | ge (3ded cBG^G | Adcf- f a3 | z a (3gag ecde | %76
 gfef- fdef | gfde f g2 d | g8 | z a (3gag ecde | gfef- fdef | ge (3ded cBG^G | %82
!<(! Acfg [A_ea] [cec']3!<)! |!f! d'c'bf _d _e2 d | c c'2 a b a2 d |!>(! b g2 d f2 g2!>)! |1 %86
!mp! [Acf]8 :|2 [Acf]4 !fermata![faf']4 |] %88
V:2
!ped! [CGe]8!ped-up! |!ped! [DAc]4!ped-up!!ped! [GB]2 G,2!ped-up! |[K:bass]!ped! [C,G,E]8!ped-up! | %3
!ped! [D,A,C]4!ped-up!!ped! [D,B,]2 [G,,G,]C,-!ped-up! |: %4
!ped! [C,G,E]2 A,_A,!ped-up!!ped! [C,G,]2 [G,CE]D,-!ped-up! | %5
!ped! [D,A,F]2 B,_B,!ped-up!!ped! [D,A,]2 [A,DF]=B,-!ped-up! | %6
!ped! [D,B,]2 [G,B,D]2!ped-up!!ped! [G,,B,]2 [F,,A,]2!ped-up! | %7
!ped! [E,,G,]2 [E,G,C]2!ped-up!!ped! [D,,D,]2 [G,,D,G,]G,-!ped-up! | %8
!ped! [E,,G,]2 [E,G,C]_G,-!ped-up!!ped! [_E,,G,]2 [_E,G,A,C]F,-!ped-up! | %9
!ped! [D,,F,]2 [D,F,_B,]E,-!ped-up!!ped! [^C,,E,]2 [E,G,A,]D,,-!ped-up! | %10
!ped! [D,,A,,F,]2 [F,A,D]F,,-!ped-up!!ped! [F,,A,]2 [F,A,D]F,,-!ped-up! | %11
!ped! [F,,C,_A,]2 G,,-[G,,D,G,]-!ped-up!!ped! [G,,D,G,]G,,- [G,,D,B,]2!ped-up! | %12
!ped! [C,G,E]2 A,_A,!ped-up!!ped! [C,G,]2 [G,CE]=A,-!ped-up! | %13
!ped! [D,A,F]2 B,_B,!ped-up!!ped! [D,A,]2 [A,DF]=B,-!ped-up! | %14
!ped! [D,B,]2 [G,B,D]2!ped-up!!ped! [G,,B,]2 [F,,A,]2!ped-up! | %15
!ped! [E,,G,]2 [E,G,C]2!ped-up!!ped! [D,,F,]2 [G,,G,]E,-!ped-up! | %16
!ped! [C,,G,,E,]2 [E,G,C]_B,-!ped-up!!ped! [G,,B,]2 [E,G,B,C]A,-!ped-up! | %17
!ped! [F,,A,]2 [F,A,C]_A,-!ped-up!!ped! [_A,,A,]2 [F,A,C]_G,-!ped-up! | %18
!ped! [_A,,_E,G,]2 [_A,C_E]F,-!ped-up!!ped! [G,,D,F,]2 [B,DF][C=E]!ped-up! |1 %19
!ped! [C,G,C]2 [C,_B,]2!ped-up!!ped! [C,A,]2 _A,2!ped-up! :|2 %20
!ped! [C,G,C]2 [G,CE]G,-!ped-up!!ped! [G,CEG]C-[CEGc]D,,-!ped-up! |: %21
!ped! [D,,A,,^F,]2 [D,F,A,C]D,,-!ped-up!!ped! [D,,=F,]2 [G,B,=F]C,,-!ped-up! | %22
!ped! [C,,G,,E,]D,,-[D,,F,]E,,-!ped-up!!ped! [E,,C,G,]2 [G,CE]D,,-!ped-up! | %23
!ped! [D,,A,,^F,]2 [D,F,A,C]D,,-!ped-up!!ped! [D,,=F,]2 [G,B,F]^C,,-!ped-up! | %24
!ped! [C,,E,]2 [G,A,^CE]2!ped-up!!ped! A,,,2 [G,A,CE]D,,-!ped-up! | %25
!ped! [D,,A,,F,]2 [F,A,D]F,,-!ped-up!!ped! [F,,_A,]2 [F,A,CD]E,,-!ped-up! | %26
!ped! [E,,C,G,]2 [G,CE]A,,-!ped-up!!ped! [A,,E,A,]2 [E,A,C]B,,-!ped-up! | %27
!ped! [B,,^G,]2 [G,B,E]2!ped-up!!ped! [B,,,B,,]2 [B,,^D,^F,A,]E,,-!ped-up! | %28
!ped! [E,,E,]_E,,-[E,,_E,]D,,-!ped-up!!ped! [D,,D,]G,,-[G,,G,]D,,-!ped-up! | %29
!ped! [D,,A,,^F,]2 [D,F,A,C]D,,-!ped-up!!ped! [D,,=F,]2 [G,B,F]C,,-!ped-up! | %30
!ped! [C,,G,,E,]D,,-[D,,F,]E,,-!ped-up!!ped! [E,,C,G,]2 [G,CE]D,,-!ped-up! | %31
!ped! [D,,A,,^F,]2 [D,F,A,C]G,,-!ped-up!!ped! [G,,B,]^G,,-[G,,B,]A,,-!ped-up! | %32
!ped! [A,,E,C]2 [A,CE]G,,-!ped-up!!ped! [G,,E,_B,]2 [C,,C,]F,,-!ped-up! | %33
!ped! [F,,C,A,]2 [A,CF]F,,-!ped-up!!ped! [F,,_A,]2 [F,A,CD]E,,-!ped-up! | %34
!ped! [E,,^G,]^G,,-[G,,B,]A,,-!ped-up!!ped! [A,,E,C]^F,,-[F,,^D,]=G,,-!ped-up! | %35
!ped! [G,,E,]2 [G,CE]D,,-!ped-up!!ped! [D,,^F,]G,,-[G,,=F,]C,,-!ped-up! |1 %36
!ped! [C,,G,,E,]2 [G,CE]G,-!ped-up!!ped! [G,CEG]C-[CEGc]D,,!ped-up! :|2 %37
!ped! [C,,C,]E,-[E,G,CE]D,-!ped-up!!ped! [D,F,A,D]2 [D,F,G,B,]C,-!ped-up! || %38
!ped! [C,G,E]2 A,_A,!ped-up!!ped! [C,G,]2 [G,CE]D,-!ped-up! | %39
!ped! [D,A,F]2 B,_B,!ped-up!!ped! [D,A,]2 [A,DF]^A,!ped-up! | %40
!ped! [D,B,]2 [G,B,D]2!ped-up!!ped! [G,,B,]2 [F,,A,]2!ped-up! | %41
!ped! [E,,G,]2 [E,G,C]2!ped-up!!ped! [D,,F,]2 [G,,G,]G,-!ped-up! | %42
!ped! [E,,G,]2 [E,G,C]_G,-!ped-up!!ped! [_E,,G,]2 [_E,G,A,C]F,-!ped-up! | %43
!ped! [D,,F,]2 [D,F,_B,]E,-!ped-up!!ped! [^C,,E,]2 [E,G,A,]D,,-!ped-up! | %44
!ped! [D,,A,,F,]2 [F,A,D]F,,-!ped-up!!ped! [F,,A,]2 [F,A,D]F,,-!ped-up! | %45
!ped! [F,,C,_A,]2 G,,-[G,,D,G,]-!ped-up!!ped! [G,,D,G,]G,,- [G,,D,B,]2!ped-up! | %46
!ped! [C,G,E]2 A,_A,!ped-up!!ped! [C,G,]2 [G,CE]=A,-!ped-up! | %47
!ped! [D,A,F]2 B,_B,!ped-up!!ped! [D,A,]2 [A,DF]=B,-!ped-up! | %48
!ped! [D,B,]2 [G,B,D]2!ped-up!!ped! [G,,B,]2 [F,,A,]2!ped-up! | %49
!ped! [E,,G,]2 [E,G,C]2!ped-up!!ped! [D,,F,]2 [G,,G,]E,-!ped-up! | %50
!ped! [C,,G,,E,]2 [E,G,C]_B,-!ped-up!!ped! [G,,B,]2 [E,G,B,C]A,-!ped-up! | %51
!ped! [F,,A,]2 [F,A,C]_A,-!ped-up!!ped! [_A,,A,]2 [F,A,C]_G,-!ped-up! | %52
!ped! [_A,,_E,G,]2 [_A,C_E]F,-!ped-up!!ped! [G,,D,F,]2 [B,DF]G,,-!ped-up! | %53
!ped! [G,,E,]2 [G,,G,]2!ped-up!!ped! [C,C]2 [C,,C,]2!ped-up! |: %54
[K:F]!ped! z2 [F,C_E]2 [F,B,D]2 [F,B,_D]2!ped-up! | %55
!ped! [F,A,C]2 [F,^G,=B,]2!ped-up!!ped! [F,A,C]2 [^F,,^F,]G,,-!ped-up! | %56
!mf!!ped! [G,,D,B,]2 [G,B,D]C,,-!ped-up!!ped! [C,,G,,E,]2 [G,B,CE]A,,-!ped-up! | %57
!ped! [A,,F,A,]_A,,-[A,,_A,]G,,-!ped-up!!ped! [G,,G,]C,,-[C,,C,]=A,,-!ped-up! | %58
!ped! [A,,^F,C]2 [D,F,A,C]2!ped-up!!ped! [D,,D,]2 [D,F,A,C]G,,-!ped-up! | %59
!ped! [G,,D,B,]2 [G,B,D]2!ped-up!!ped! G,,,2 [G,B,D]G,,-!ped-up! | %60
!ped! [G,,D,=B,]3 _D,,-!ped-up!!ped! [D,,_A,,F,]3 C,,-!ped-up! | %61
!ped! [C,,G,,E,]C,-[C,E,G,B,]D,-!ped-up!!ped! [D,G,B,]E,-[E,G,B,]F,,-!ped-up! | %62
!ped! z2 [F,C_E]2 [F,B,D]2 [F,B,_D]2!ped-up! | %63
!ped! [F,A,C]2 [F,^G,=B,]2!ped-up!!ped! [F,A,C]2 [^F,,^F,]G,,-!ped-up! | %64
!ped! [G,,D,B,]2 [G,B,D]C,,-!ped-up!!ped! [C,,C,]^C,,-[C,,^C,]D,,-!ped-up! | %65
!ped! [D,,A,,F,]2 [F,A,D]C,,-!ped-up!!ped! [C,,_E,]2 [F,,F,]B,,,-!ped-up! | %66
!ped! [B,,,B,,]2 [F,B,D]_D,,-!ped-up!!ped! [D,,_D,]2 [F,B,_D]C,-!ped-up! | %67
!ped! [C,,C,]_E,-[_E,,E,]D,-!ped-up!!ped! [D,,A,,D,]2 [D,^F,A,C]G,,-!ped-up! | %68
!ped! [G,,D,F,]2 [G,=B,DF]C,,-!ped-up!!ped! [C,,G,,E,]2 [G,_B,CE]F,,-!ped-up! |1 %69
!ped! z2 [C,A,]2!ped-up!!ped! [D,A,]2 [C,G,]F,,!ped-up! :|2 %70
!ped! z C, (3D,C,A,,!ped-up!!ped! F,,4!ped-up! |:!ped! [G,D]4!ped-up!!ped! [G,E]4!ped-up! | %72
!ped! [F,C]4!ped-up!!ped! [F,D]4!ped-up! |!ped! [E,C]4!ped-up!!ped! [C,G,]4!ped-up! | %74
!ped! [F,C]4!ped-up!!ped! [A,F]4!ped-up! |!ped! [G,D]4!ped-up!!ped! [G,E]4!ped-up! | %76
!ped! [F,C]4!ped-up!!ped! [D,C]4!ped-up! |!ped! [G,D]4!ped-up!!ped! [D,=B,]4!ped-up! | %78
!ped! z2 C,E, G,D C2!ped-up! |!ped! [G,D]4!ped-up!!ped! [G,E]4!ped-up! | %80
!ped! [F,C]4!ped-up!!ped! [F,D]4!ped-up! |!ped! [E,C]4!ped-up!!ped! [C,G,]4!ped-up! | %82
!ped! [F,C]3 _E,-!ped-up!!ped! [E,_E]C,-[C,C]B,,-!ped-up! | %83
!ped! [B,,B,]2 [F,B,D]_D,-!ped-up!!ped! [_D,,D,]2 [F,B,_D]2!ped-up! | %84
!ped! [C,,C,]_E,,-[E,,_E,]D,,-!ped-up!!ped! [D,,A,,D,]2 [D,^F,A,C]G,,-!ped-up! | %85
!ped! [G,,D,B,]2 [G,B,D]C,-!ped-up!!ped! [C,B,]2 C,,F,,-!ped-up! |1 %86
!ped! z2 (3A,,C,D, F,2 F,,2!ped-up! :|2 %87
!mp!!ped! [F,,C,A,]2 C,,2!ped-up!!ped! !fermata!F,,,4!ped-up! |] %88
V:3
!8va(! x8 | x8 | x!8va)! x7 | x8 |: x4 G4 | x4 A4 | F2 [FB]2- [FB] [FB]3 | [EG]3 [B,F]- [B,F]4 | %8
 [EG]4 [_E_G] [EG]3 | [DF]4 [^CE] C3 | D3 [FA]- [FA]4 | [F_A]3 [FG]- x4 | x4 G4 | x4 A4 | %14
 F2 [FB]2- [FB] [FB]3 | [EG]3 [B,F]- [B,F]4 | [EG] [EG]3 [E_B] [EB]3 | %17
 [FA] [FA]2 [F_A]- [FA] [FA]3 | [_E_G]2 [EG][DF]- [DF]2 [DF][=E=G]- |1 x31/4 x/4- :|2 %20
 x(5:4:5x/4x/4x/4x/4x/4 xx/4x/4x/4x/4 x(3x/x/x/ x x |: x8 | x8 | x8 | x8 | [Ad]4 x4 | e4 x4 | %27
 x4 [^d^f]2 A2 | [^GB]2 x6 | x8 | x8 | x8 | x8 | c2 x6 | x8 | x8 |1 %36
 x(5:4:5x/4x/4x/4x/4x/4 xx/4x/4x/4x/4 x(3x/x/x/ x x3/4 x/4- :|2 x c3 A2 x2 || x4 G4 | x4 A4 | %40
 F2 [FB]2- [FB] [FB]3 | [EG]3 [B,F]- [B,F]4 | [EG]4 [_E_G] [EG]3 | [DF]4 [^CE] C3 | %44
 D3 [FA]- [FA]4 | [F_A]3 [FG]- x4 | x4 G4 | x4 A4 | F2 [FB]2- [FB] [FB]3 | [EG]3 [B,F]- [B,F]4 | %50
 [EG] [EG]3 [E_B] [EB]3 | [FA] [FA]2 [F_A]- [FA] [FA]3 | [_E_G]2 [EG][DF]- [DF]2 [DF]2 | x8 |: %54
[K:F] x8 | F2 _A2 =A ^D3 | x4 B3 x | A2 _A[GB]- [GB] [EB]2 x | x c3 x =c3 | x4 B4 | x8 | %61
 x2 B2 B2 [EGB]2 | x8 | F2 _A2 =A ^D3 | x4 B [A^ce]2 x | [Ad]2 A[Ac_e]- [Ace] [Ace]2 x | %66
 [Bd] [Bd]2 x [B_d] [Bd]2 x | F F2 [^Fc]- [Fc] [Fc]2 x | x [=Bf]2 [ceg]- [ceg] [_B=e]3 |1 %69
 [Ac]2 F2 F2 E2 :|2 x8 |: =B4 _B4 | A4 _A4 | B4 E4 | A4 c4 | =B4 _B4 | A4 _A4 | =B4 G4 | x8 | %79
 =B4 _B4 | A4 _A4 | B4 E4 | A4 x4 | [dfb]4 x [FB]3 | [FA] [cfa]3 [c^f] [cf]2 x | B B3 B4 |1 x8 :|2 %87
 x8 |] %88
V:4
 x8 | x8 |[K:bass] x8 | x8 |: x8 | x8 | x8 | x8 | x8 | x8 | x8 | x8 | x8 | x8 | x8 | x8 | x8 | x8 | %18
 x8 |1 x8 :|2 x8 |: x8 | x8 | x8 | x8 | x8 | x8 | x8 | x8 | x8 | x8 | x8 | x8 | x8 | x8 | x8 |1 %36
 x8 :|2 x8 || x8 | x8 | x8 | x8 | x8 | x8 | x8 | x8 | x8 | x8 | x8 | x8 | x8 | x8 | x8 | x8 |: %54
[K:F] [F,,C,A,]4 x4 | x8 | x8 | x8 | x8 | x8 | x8 | x8 | [F,,C,A,]4 x4 | x8 | x8 | x8 | x8 | x8 | %68
 x8 |1 [F,,C,A,]4 x4 :|2 [F,,C,A,]4 x4 |: x8 | x8 | x8 | x8 | x8 | x8 | x8 | [E,C]8 | x8 | x8 | %81
 x8 | x8 | x8 | x8 | x8 |1 [F,,C,F,]4 x4 :|2 x8 |] %88

